**kern	**text
*clefG2	*
*k[b-e-a-d-g-c-]	*
*M4/4	*
*MM210	*
=1	=1
1r	.
=2	=2
1r	.
=3	=3
4r	.
8e-L	あ
8d-J	れ
4e-'	や
8e-L	こ
[8e-J	れ
=4	=4
8e-L]	.
8d-J	や
8r	.
[8d-	い
8d-L]	.
8B-	ま
8d-	す
8e-J	が
=5	=5
4r	.
8e-L	ど
8d-J	お
4e-'	か
8e-L	さ
8g-J	が
=6	=6
8r	.
8f	し
8r	.
[8e-	て
8e-L]	.
8d-	み
8d-	せ
8e-J	て
=7	=7
4r	.
8e-L	う
8d-J	そ
4e-'	と
8e-L	ほ
[8e-J	ん
=8	=8
8e-]	.
4d-	ね
[8d-	の
8d-L]	.
8B-	あ
8d-	い
8e-J	だ
=9	=9
4r	.
8e-L	う
8d-J	ま
4e-'	く
8e-L	か
8g-J	く
=10	=10
8r	.
4f	し
8e-	と
8e-L	い
8d-	た
8d-	ん
8e-J	で
=11	=11
1r	.
=12	=12
1r	.
=13	=13
1r	.
=14	=14
1r	.
=15	=15
1r	.
=16	=16
1r	.
=17	=17
1r	.
=18	=18
1r	.
=19	=19
1r	.
=20	=20
1r	.
=21	=21
1r	.
=22	=22
1r	.
=23	=23
1r	.
=24	=24
1r	.
=25	=25
1r	.
=26	=26
1r	.
=27	=27
1r	.
=28	=28
8r	.
8e-L	ひ
8e-	と
8e-J	り
4e-'	じゃ
8e-L	だ
[8e-J	め
=29	=29
8e-]	.
4d-	な
[8d-	ど
8d-L]	.
8B-	お
8d-	し
8e-J	で
=30	=30
8r	.
8e-L	ふ
8e-	た
8d-J	り
4e-'	に
8e-L	な
[8g-J	れ
=31	=31
8g-]	.
4a-	ば
8b-	は
8r	.
4.a-	ぴ
=32	=32
8r	.
8e-L	そ
8e-	の
8d-J	う
4e-'	ち
8e-L	ふ
[8e-J	た
=33	=33
8e-]	.
4d-	り
[8d-	が
8d-L]	.
8B-	い
8d-	や
8e-J	で
=34	=34
8r	.
8e-L	ひ
8e-	と
8d-J	り
4e-'	が
4e-	い
=35	=35
8g-	と
4a-	か
8b-	い
8r	.
4.a-	て
=36	=36
8r	.
8e-L	こ
8b-	て
8a-J	い
8b-	し
4a-	よ
8a-	も
=37	=37
8b-L	な
8a-	い
8b-	か
[8b-J	ん
8b-]	.
4a-	じょ
8b-	も
=38	=38
8r	.
8e-L	い
8b-	き
8a-J	つ
8b-L	く
8a-	さ
8b-	き
8a-J	は
=39	=39
4b-'	ど
8a-L	こ
8g-J	で
8r	.
4f	しょ
8e-	お
=40	=40
8r	.
8e-L	お
8b-	ぼ
8a-J	れ
8b-L	そ
8a-	お
8a-	に
8a-J	な
=41	=41
8b-L	あ
8b-	た
8cc-	だ
[8b-J	い
8b-]	.
4a-	しょ
8b-	に
=42	=42
8r	.
8e-L	ま
8b-	た
8a-J	さ
8b-L	ん
8a-	そ
8b-	を
8a-J	み
=43	=43
8b-L	つ
8b-	け
8ee-	ちゃ
8dd-J	う
8dd-	ん
4.a-	だ
=44	=44
2r	.
4r	.
4d-	よ
=45	=45
4a-	わ
4b-	む
4a-	し
4g-	だ
=46	=46
2d-	ね
4r	.
4d-	お
=47	=47
4g-	ち
4d-	る
4g-	こ
4a-	と
=48	=48
2b-	が
4r	.
4d-	こ
=49	=49
4cc-	こ
4b-	ち
4a-	よ
4g-	く
=50	=50
2a-	て
4r	.
4cc-	さ
=51	=51
4b-'	あ
4r	.
2r	.
=52	=52
4ccn	あ
8ccL	い
[8ccJ	ま
8ccL]	.
8cc	い
8b-	に
8a-J	し
=53	=53
8b-L	た
8b-	い
8ccn	の
8ccJ	さ
8r	.
8a-L	す
8b-	き
[8ccJ	で
=54	=54
8ccL]	.
8a-J	い
4ee-'	た
4ccn	て
8a-L	ゆ
[8a-J	が
=55	=55
8a-L]	.
8e-	ん
8e-	で
8a-J	く
8a-L	な
8a-J	い
4b-	しょ
=56	=56
4ccn	あ
8ccL	い
[8ccJ	ま
8ccL]	.
8cc	い
8b-	に
8a-J	し
=57	=57
8b-L	た
8b-	い
8ccn	の
8ccJ	さ
8r	.
8a-L	き
8b-	ら
[8ccJ	い
=58	=58
8ccL]	.
8a-J	に
4ee-'	な
4ccn	て
8a-L	し
[8a-J	ま
=59	=59
8a-L]	.
8e-	え
8e-	た
8a-J	ら
8a-L	だ
8a-J	い
4b-	せ
=60	=60
1ccn	こ
=61	=61
1r	.
=62	=62
1r	.
=63	=63
1r	.
=64	=64
1r	.
=65	=65
1r	.
=66	=66
1r	.
=67	=67
1r	.
=68	=68
1r	.
=69	=69
1r	.
=70	=70
1r	.
=71	=71
1r	.
=72	=72
1r	.
=73	=73
1r	.
=74	=74
1r	.
=75	=75
1r	.
=76	=76
8r	.
8e-L	ひ
8e-	と
8e-J	り
4e-'	じゃ
8e-L	だ
[8e-J	め
=77	=77
8e-]	.
4d-	な
[8d-	ど
8d-L]	.
8B-	お
8d-	し
8e-J	で
=78	=78
8r	.
8e-L	ふ
8e-	た
8d-J	り
4e-'	に
8e-L	な
[8g-J	れ
=79	=79
8g-]	.
4a-	ば
8b-	は
8r	.
4.a-	ぴ
=80	=80
8r	.
8e-L	そ
8e-	の
8d-J	う
4e-'	ち
8e-L	ふ
[8e-J	た
=81	=81
8e-]	.
4d-	り
[8d-	が
8d-L]	.
8B-	い
8d-	や
8e-J	で
=82	=82
8r	.
8e-L	ひ
8e-	と
8d-J	り
4e-'	が
4e-	い
=83	=83
8g-	と
4a-	か
8b-	い
8r	.
4.a-	て
=84	=84
8r	.
8e-L	ど
8b-	お
8a-J	せ
8b-L	な
8a-	ら
8b-	ぼ
8a-J	く
=85	=85
8b-	が
4b-	も
[8b-	ひ
8b-]	.
4a-	と
8b-	り
=86	=86
8r	.
8e-L	い
8b-	た
8a-J	な
8b-L	ら
8a-	そ
8b-	れ
8a-J	わ
=87	=87
8b-L	そ
8b-	れ
8cc-	で
8dd-J	は
8r	.
4a-	ぴ
8g-	だ
=88	=88
4r	.
8b-L	きょ
8a-J	お
8b-L	わ
8a-	ぼ
8b-	く
8a-J	が
=89	=89
4b-	お
8cc-L	ん
[8b-J	な
8b-]	.
4a-	の
8b-	こ
=90	=90
8r	.
8e-L	え
8b-	ん
8a-J	じ
4b-'	あ
8b-L	て
8b-J	ば
=91	=91
4dd-	か
8b-L	み
8a-J	た
8a-	い
4a-	に
[8b-	さ
=92	=92
1b-]	.
=93	=93
1r	.
=94	=94
1r	.
=95	=95
1r	.
=96	=96
1r	.
=97	=97
1r	.
=98	=98
1r	.
=99	=99
1r	.
=100	=100
1r	.
=101	=101
1r	.
=102	=102
1r	.
=103	=103
1r	.
=104	=104
1r	.
=105	=105
1r	.
=106	=106
1r	.
=107	=107
1r	.
=108	=108
2r	.
4r	.
4d-	え
=109	=109
4a-	ご
4b-	ま
4a-	ま
4g-	だ
=110	=110
2d-	と
4r	.
4d-	し
=111	=111
4g-	り
4d-	な
4g-	が
4a-	ら
=112	=112
2b-	も
4r	.
4d-	や
=113	=113
4cc-	め
4b-	ら
4a-	れ
4g-	な
=114	=114
2a-	い
4r	.
4cc-	の
=115	=115
4b-'	さ
4r	.
2r	.
=116	=116
1r	.
=117	=117
4ccn	あ
8ccL	い
[8ccJ	ま
8ccL]	.
8cc	い
8b-	に
8a-J	し
=118	=118
8b-L	た
8b-	い
8ccn	の
8ccJ	さ
8r	.
8a-L	す
8b-	き
[8ccJ	で
=119	=119
8ccL]	.
8a-J	い
4ee-'	た
4ccn	て
8a-L	ゆ
[8a-J	が
=120	=120
8a-L]	.
8e-	ん
8e-	で
8a-J	く
8a-L	な
8a-J	い
4b-	しょ
=121	=121
4ccn	あ
8ccL	い
[8ccJ	ま
8ccL]	.
8cc	い
8b-	に
8a-J	し
=122	=122
8b-L	た
8b-	い
8ccn	の
8ccJ	さ
8r	.
8a-L	き
8b-	ら
[8ccJ	い
=123	=123
8ccL]	.
8a-J	に
4ee-'	な
4ccn	て
8a-L	し
[8a-J	ま
=124	=124
8a-L]	.
8e-	え
8e-	た
8a-J	ら
8a-L	せ
8a-J	い
4b-	こ
=125	=125
4ccn	ば
8ccL	い
[8ccJ	ば
8ccL]	.
8cc	い
8b-	を
8a-J	し
=126	=126
8b-L	た
8b-	い
8ccn	の
8ccJ	さ
8r	.
8a-L	ぼ
8b-	く
[8ccJ	で
=127	=127
8ccL]	.
8a-J	い
4ee-'	た
4ccn	て
8a-L	た
[8a-J	の
=128	=128
8a-L]	.
8f	し
8f	く
8a-J	な
8a-L	い
8a-J	ん
4b-	だ
=129	=129
4ccn	た
8ccL	い
[8ccJ	が
8ccL]	.
8cc	い
8b-	に
8a-J	し
=130	=130
8b-L	た
8b-	い
8ccn	の
[8ccJ	さ
4cc]	.
8ee-L	も
[8ccJ	お
=131	=131
4cc]	.
8ee-L	も
[8ccnJ	お
4cc]	.
6ee-	も
[12cc	お
=132	=132
2cc]	.
2dd-	あ
=133	=133
[1ccn	あ
=134	=134
1cc]	.
=135	=135
1r	.
=136	=136
1r	.
=137	=137
1r	.
=138	=138
1r	.
=139	=139
1r	.
=140	=140
1r	.
=141	=141
1r	.
=142	=142
1r	.
=143	=143
1r	.
=144	=144
1r	.
=145	=145
1r	.
=146	=146
1r	.
=147	=147
1r	.
=148	=148
1r	.
=149	=149
4r	.
8fL	あ
8e-J	れ
4f'	や
8fL	こ
[8fJ	れ
=150	=150
8fL]	.
8e-J	や
8r	.
[8e-	い
8e-L]	.
8cn	ま
8e-	し
8fJ	た
=151	=151
4r	.
8fL	ど
8e-J	お
4f'	か
8fL	さ
8a-J	が
=152	=152
8r	.
8gn	し
8r	.
[8f	て
8fL]	.
8e-	み
8e-	せ
8fJ	て
=153	=153
4r	.
8fL	う
8e-J	そ
4f'	と
8fL	ほ
[8fJ	ん
=154	=154
8f]	.
4e-	ね
[8e-	の
8e-L]	.
8cn	あ
8e-	い
8fJ	だ
=155	=155
4r	.
8fL	う
8e-J	ま
4f'	く
8fL	か
8a-J	く
=156	=156
8r	.
4gn	し
8f	と
8fL	い
8e-	た
8e-	ん
8fJ	で
==	==
*-	*-
